symbols/web/settings_system_daydream/materialsymbolsoutlined/settings_system_daydream_gradN25_24px.svg

<svg xmlns="http://www.w3.org/2000/svg" height="24" width="24"><path d="M9.05 15.85h6.4q1 0 1.687-.688.688-.687.688-1.687t-.688-1.688q-.687-.687-1.687-.687h-.125Q15.15 9.85 14.262 9q-.887-.85-2.112-.85-1.025 0-1.888.525-.862.525-1.287 1.45H8.8q-1.125 0-1.862.863-.738.862-.738 1.987 0 1.2.837 2.037.838.838 2.013.838Zm-4.925 3.925q-.775 0-1.325-.55-.55-.55-.55-1.325V6.1q0-.775.55-1.325.55-.55 1.325-.55h15.75q.775 0 1.325.55.55.55.55 1.325v11.8q0 .775-.55 1.325-.55.55-1.325.55Zm0-1.875h15.75V6.1H4.125v11.8Zm4.925-3.925q-.425 0-.7-.287-.275-.288-.275-.713 0-.4.275-.688.275-.287.7-.287h1.375v-.275q0-.7.425-1.2t1.15-.5q.725 0 1.163.487.437.488.437 1.213v1.25h1.85q.2 0 .35.15.15.15.15.35 0 .2-.15.35-.15.15-.35.15ZM12 12Z"/></svg>

<svg xmlns="http://www.w3.org/2000/svg" height="24" width="24"><path d="M9.05 15.85H15.45Q16.45 15.85 17.137 15.162Q17.825 14.475 17.825 13.475Q17.825 12.475 17.137 11.787Q16.45 11.1 15.45 11.1H15.325Q15.15 9.85 14.262 9Q13.375 8.15 12.15 8.15Q11.125 8.15 10.262 8.675Q9.4 9.2 8.975 10.125H8.8Q7.675 10.125 6.938 10.988Q6.2 11.85 6.2 12.975Q6.2 14.175 7.037 15.012Q7.875 15.85 9.05 15.85ZM4.125 19.775Q3.35 19.775 2.8 19.225Q2.25 18.675 2.25 17.9V6.1Q2.25 5.325 2.8 4.775Q3.35 4.225 4.125 4.225H19.875Q20.65 4.225 21.2 4.775Q21.75 5.325 21.75 6.1V17.9Q21.75 18.675 21.2 19.225Q20.65 19.775 19.875 19.775ZM4.125 17.9H19.875Q19.875 17.9 19.875 17.9Q19.875 17.9 19.875 17.9V6.1Q19.875 6.1 19.875 6.1Q19.875 6.1 19.875 6.1H4.125Q4.125 6.1 4.125 6.1Q4.125 6.1 4.125 6.1V17.9Q4.125 17.9 4.125 17.9Q4.125 17.9 4.125 17.9ZM9.05 13.975Q8.625 13.975 8.35 13.688Q8.075 13.4 8.075 12.975Q8.075 12.575 8.35 12.287Q8.625 12 9.05 12H10.425V11.725Q10.425 11.025 10.85 10.525Q11.275 10.025 12 10.025Q12.725 10.025 13.163 10.512Q13.6 11 13.6 11.725V12.975H15.45Q15.65 12.975 15.8 13.125Q15.95 13.275 15.95 13.475Q15.95 13.675 15.8 13.825Q15.65 13.975 15.45 13.975ZM12 12Q12 12 12 12Q12 12 12 12Q12 12 12 12Q12 12 12 12Q12 12 12 12Q12 12 12 12Q12 12 12 12Q12 12 12 12Z"/></svg>
